icons/umbrella-fill.svg

<svg xmlns="http://www.w3.org/2000/svg" width="24" height="24" fill="none"><g clip-path="url(#a)"><g><path fill="#121212" d="M13 2.05C18.053 2.551 22 6.815 22 12V13H13V19C13 19.5304 13.2107 20.0391 13.5858 20.4142C13.9609 20.7893 14.4696 21 15 21C15.5304 21 16.0391 20.7893 16.4142 20.4142C16.7893 20.0391 17 19.5304 17 19V18H19V19C19 20.0609 18.5786 21.0783 17.8284 21.8284C17.0783 22.5786 16.0609 23 15 23C13.9391 23 12.9217 22.5786 12.1716 21.8284C11.4214 21.0783 11 20.0609 11 19V13H2V12C2 6.815 5.947 2.551 11 2.05V2C11 1.73478 11.1054 1.48043 11.2929 1.29289C11.4804 1.10536 11.7348 1 12 1C12.2652 1 12.5196 1.10536 12.7071 1.29289C12.8946 1.48043 13 1.73478 13 2V2.05Z"/></g></g><defs><clipPath id="a"><rect width="24" height="24" fill="white"/></clipPath></defs></svg>

<svg width="24" height="24" fill="none" xmlns="http://www.w3.org/2000/svg"><g clip-path="url(#a)"><path d="M13 2.05c5.053.501 9 4.765 9 9.95v1h-9v6a2 2 0 0 0 4 0v-1h2v1a4 4 0 1 1-8 0v-6H2v-1c0-5.185 3.947-9.449 9-9.95V2a1 1 0 0 1 2 0v.05Z" /></g><defs><clipPath id="a"><path fill="#fff" d="M0 0h24v24H0z"/></clipPath></defs></svg>
